posts/Introduction-to-C-Game-Development/game-loop.svg

<svg xmlns="http://www.w3.org/2000/svg" xmlns:xlink="http://www.w3.org/1999/xlink" width="261" height="511" viewBox="-0.5 -0.5 261 511" style="background-color:#fff"><path d="M130 80v20-10 13.63" fill="none" stroke="#000" stroke-miterlimit="10" pointer-events="stroke"/><path d="m130 108.88-3.5-7 3.5 1.75 3.5-1.75Z" stroke="#000" stroke-miterlimit="10" pointer-events="all"/><rect x="100" y="20" width="60" height="60" rx="30" ry="30" fill="#FFF" stroke="#000" pointer-events="all"/><switch transform="translate(-.5 -.5)"><foreignObject pointer-events="none" width="100%" height="100%" requiredFeatures="http://www.w3.org/TR/SVG11/feature#Extensibility" style="overflow:visible;text-align:left"><div xmlns="http://www.w3.org/1999/xhtml" style="display:flex;align-items:unsafe center;justify-content:unsafe center;width:58px;height:1px;padding-top:50px;margin-left:101px"><div data-drawio-colors="color: rgb(0, 0, 0);" style="box-sizing:border-box;font-size:0;text-align:center"><div style="display:inline-block;font-size:12px;font-family:Helvetica;color:#000;line-height:1.2;pointer-events:all;white-space:normal;overflow-wrap:normal">Start</div></div></div></foreignObject><text x="130" y="54" font-family="Helvetica" font-size="12" text-anchor="middle">Start</text></switch><path d="M130 160v20-10 13.63" fill="none" stroke="#000" stroke-miterlimit="10" pointer-events="stroke"/><path d="m130 188.88-3.5-7 3.5 1.75 3.5-1.75Z" stroke="#000" stroke-miterlimit="10" pointer-events="all"/><rect x="80" y="110" width="100" height="50" rx="7.5" ry="7.5" fill="#FFF" stroke="#000" pointer-events="all"/><switch transform="translate(-.5 -.5)"><foreignObject pointer-events="none" width="100%" height="100%" requiredFeatures="http://www.w3.org/TR/SVG11/feature#Extensibility" style="overflow:visible;text-align:left"><div xmlns="http://www.w3.org/1999/xhtml" style="display:flex;align-items:unsafe center;justify-content:unsafe center;width:98px;height:1px;padding-top:135px;margin-left:81px"><div data-drawio-colors="color: rgb(0, 0, 0);" style="box-sizing:border-box;font-size:0;text-align:center"><div style="display:inline-block;font-size:12px;font-family:Helvetica;color:#000;line-height:1.2;pointer-events:all;white-space:normal;overflow-wrap:normal">Initialization</div></div></div></foreignObject><text x="130" y="139" font-family="Helvetica" font-size="12" text-anchor="middle">Initialization</text></switch><rect x="20" y="190" width="220" height="300" rx="33" ry="33" fill="#FFF" stroke="#000" pointer-events="all"/><path fill="none" pointer-events="all" d="M30 189.95h70v30H30z"/><switch transform="translate(-.5 -.5)"><foreignObject pointer-events="none" width="100%" height="100%" requiredFeatures="http://www.w3.org/TR/SVG11/feature#Extensibility" style="overflow:visible;text-align:left"><div xmlns="http://www.w3.org/1999/xhtml" style="display:flex;align-items:unsafe center;justify-content:unsafe center;width:68px;height:1px;padding-top:205px;margin-left:31px"><div data-drawio-colors="color: rgb(0, 0, 0);" style="box-sizing:border-box;font-size:0;text-align:center"><div style="display:inline-block;font-size:12px;font-family:Helvetica;color:#000;line-height:1.2;pointer-events:all;white-space:normal;overflow-wrap:normal">Main Loop</div></div></div></foreignObject><text x="65" y="209" font-family="Helvetica" font-size="12" text-anchor="middle">Main Loop</text></switch><path d="M130 364.95V385v-15 13.62" fill="none" stroke="#000" stroke-miterlimit="10" pointer-events="stroke"/><path d="m130 388.87-3.5-7 3.5 1.75 3.5-1.75Z" stroke="#000" stroke-miterlimit="10" pointer-events="all"/><rect x="80" y="314.95" width="100" height="50" rx="7.5" ry="7.5" fill="#FFF" stroke="#000" pointer-events="all"/><switch transform="translate(-.5 -.5)"><foreignObject pointer-events="none" width="100%" height="100%" requiredFeatures="http://www.w3.org/TR/SVG11/feature#Extensibility" style="overflow:visible;text-align:left"><div xmlns="http://www.w3.org/1999/xhtml" style="display:flex;align-items:unsafe center;justify-content:unsafe center;width:98px;height:1px;padding-top:340px;margin-left:81px"><div data-drawio-colors="color: rgb(0, 0, 0);" style="box-sizing:border-box;font-size:0;text-align:center"><div style="display:inline-block;font-size:12px;font-family:Helvetica;color:#000;line-height:1.2;pointer-events:all;white-space:normal;overflow-wrap:normal">Update</div></div></div></foreignObject><text x="130" y="344" font-family="Helvetica" font-size="12" text-anchor="middle">Update</text></switch><path d="M130 439.99V460h70V220h-70v13.58" fill="none" stroke="#000" stroke-miterlimit="10" pointer-events="stroke"/><path d="m130 238.83-3.5-7 3.5 1.75 3.5-1.75Z" stroke="#000" stroke-miterlimit="10" pointer-events="all"/><rect x="80" y="389.99" width="100" height="50" rx="7.5" ry="7.5" fill="#FFF" stroke="#000" pointer-events="all"/><switch transform="translate(-.5 -.5)"><foreignObject pointer-events="none" width="100%" height="100%" requiredFeatures="http://www.w3.org/TR/SVG11/feature#Extensibility" style="overflow:visible;text-align:left"><div xmlns="http://www.w3.org/1999/xhtml" style="display:flex;align-items:unsafe center;justify-content:unsafe center;width:98px;height:1px;padding-top:415px;margin-left:81px"><div data-drawio-colors="color: rgb(0, 0, 0);" style="box-sizing:border-box;font-size:0;text-align:center"><div style="display:inline-block;font-size:12px;font-family:Helvetica;color:#000;line-height:1.2;pointer-events:all;white-space:normal;overflow-wrap:normal">Draw</div></div></div></foreignObject><text x="130" y="419" font-family="Helvetica" font-size="12" text-anchor="middle">Draw</text></switch><path d="M130 289.95V310v-15 13.58" fill="none" stroke="#000" stroke-miterlimit="10" pointer-events="stroke"/><path d="m130 313.83-3.5-7 3.5 1.75 3.5-1.75Z" stroke="#000" stroke-miterlimit="10" pointer-events="all"/><rect x="80" y="239.95" width="100" height="50" rx="7.5" ry="7.5" fill="#FFF" stroke="#000" pointer-events="all"/><switch transform="translate(-.5 -.5)"><foreignObject pointer-events="none" width="100%" height="100%" requiredFeatures="http://www.w3.org/TR/SVG11/feature#Extensibility" style="overflow:visible;text-align:left"><div xmlns="http://www.w3.org/1999/xhtml" style="display:flex;align-items:unsafe center;justify-content:unsafe center;width:98px;height:1px;padding-top:265px;margin-left:81px"><div data-drawio-colors="color: rgb(0, 0, 0);" style="box-sizing:border-box;font-size:0;text-align:center"><div style="display:inline-block;font-size:12px;font-family:Helvetica;color:#000;line-height:1.2;pointer-events:all;white-space:normal;overflow-wrap:normal">ProcessInput</div></div></div></foreignObject><text x="130" y="269" font-family="Helvetica" font-size="12" text-anchor="middle">ProcessInput</text></switch><switch><a transform="translate(0 -5)" xlink:href="https://www.drawio.com/doc/faq/svg-export-text-problems" target="_blank"><text text-anchor="middle" font-size="10" x="50%" y="100%">Text is not SVG - cannot display</text></a></switch></svg>

<?xml version="1.0" encoding="UTF-8"?>
<!-- Do not edit this file with editors other than draw.io -->
<!DOCTYPE svg PUBLIC "-//W3C//DTD SVG 1.1//EN" "http://www.w3.org/Graphics/SVG/1.1/DTD/svg11.dtd">
<svg xmlns="http://www.w3.org/2000/svg" xmlns:xlink="http://www.w3.org/1999/xlink" version="1.1" width="261px" height="511px" viewBox="-0.5 -0.5 261 511" content="&lt;mxfile host=&quot;Electron&quot; modified=&quot;2023-08-08T05:07:24.094Z&quot; agent=&quot;Mozilla/5.0 (Windows NT 10.0; Win64; x64) AppleWebKit/537.36 (KHTML, like Gecko) draw.io/21.6.5 Chrome/114.0.5735.243 Electron/25.3.1 Safari/537.36&quot; etag=&quot;bVqCNCYZh42I6E09-Ys_&quot; version=&quot;21.6.5&quot; type=&quot;device&quot; pages=&quot;2&quot;&gt;&lt;diagram name=&quot;Page-1&quot; id=&quot;NmqcMSHe5XT5RNk0Kx1o&quot;&gt;7Vxdb6M4FP01lbojdRUg5OOxSTpd7bbaajqz03laOcENbg1mwWlCf/1cgw0hJglsQjKVkKoKX64B+x4fH1+7vbDG3uo2RIF7zxxML8yOs7qwJhemOeiZ8FsY4tRg94apYR4SJzUZueGRvGNp7Ejrgjg4KjhyxignQdE4Y76PZ7xgQ2HIlkW3Z0aLbw3QHGuGxxmiuvU7cbgrm2V3cvsfmMxd9WajI+94SDlLQ+Qihy3XTNbNhTUOGePplbcaYyr6TvVLWu/zlrvZh4XY51UqrJ577zfd4Zd//3Tux+P/vrOnm5cr05Ifx2PVYuxAB8giC7nL5sxH9Ca3jkK28B0sHtuBUu5zx1gARgOML5jzWEYTLTgDk8s9Ku/CF4fx03rhh3jY77YqTlby4WkpzkrOtYgpFKeUzV5T02dCae4gX2qIot5FstcitghneEe/SJByFM4x39V/Mrii09beICNwi5mHoQHgEGKKOHkrogpJcM4zP1kVWoniNYeAEZ9Ha09+EAZwkMPM7MnvkKPMHJpFLOzxt2xr3R8u0i9QpbWm5KYEXzWwJvv0DdGF7IYR4hr8oiXxKPIFzp6ZzxUSBVIQJXMfrmcQThyC4Q2HnMBYvZY3uMDfaOYS6tyhmC1E5CKOZq+qNHJZSN7hsUhBEW6HXGLG7BU8HkVNCawQR+DzoJBkbJju0argeIciLg0zRikKIjLNmuEBqIg/YpwzTzotXcLxY4ASTC6BSIvjZSuORQfg1U7gqYgPNxBiDtLyMmc1U3GXu85oynErWL3VF2Be5M+hhdn7LKv4PsMaau/rlbxOVVNvQxRC7SOOR4J0og2UHgWXaqpZA+aVIHDiAytdi7mLLUT0zB4VEJqGcDUXV4kXWm14beAZ4sMTnIXsFY8ZZQDcic9SgANzbZgUxil+5lsRHgFSiD+/S3wm3dzyRXakMDGo+0wTsnSJ42A/YW6OOEqhKHAneQU+1B7BD3TEWLCwDR8+hrKRl+FHuId8zHxoCyIJEjHgfIkF1utDeCdH7Me1wnGvGoy73e0oLgCqNnoMDT0aBihJYptiQMkI438BwINQJpOwjPjXZMq9MjRUWDoqrBIEUDTF9IFFhBMmnh+mvhvI2Bf8IrqJ7+KQ8Aaj3u9Ui/oO6jos6GZJ0KG1nXsYdd+CS8UFndVvKTm8MXieRiB5nQlb+ttqtYRySkLpV5wX7U5D2DK755Hke6S1Tl5HE9uG9bHVdtcY/npqW3VqQW6Laq3ePofetgZ2Rb29qYCPN2l1S3XuG4bxTnicTjn/gJSH6aOddA6ZdLKxd3QZq/yODw67lbGHytj6YbfNM+vY3g4de1lBu4pV+QxfjhD/BKUp4tXrZGo3rlDnmsPk4G57T0tWJyWrXsXVV7+xmUxPJd4iD/89fRFbAK3COY3C2Uw5V0SF0RgszPJE3mp/Fi/e7yKbJdwScV/mo5qZObXEdAgxNZYM7DeVDDTbZODhKqp22LM913PJKBVlTUY9Yv6kp/XyuerTNr0DFX/oCqlCxUmIlpetODofBxmdiglEdTLi+GjUl3Kgm6GfIOSUYn1x3wqkRgSSvbEFmqWM15BhlO2BGmZjCklf7wnd4gOvpJSxhLEE47Zc3sCyK/VKl2EtsRxALNkgPUTclKKnsZ1Os9+Km0PFTf2wl2x1loa9MW0z2KJtvgUO4pWSRLeYfyVBpFwzjmkJ5KQEUrKzWU4gjQmToRbz0+5ssiCJbUNnBhVB793GlN1w5l1Me1DvzOAe/2Z2Ma3BmSHT8DlTJRH3b33bvwRo+sYGCMzdW9+93f4NgUbPAz5QFOOwXQadYRnU2zwJWpKtKV8GdZpSspaeprtK0r9L/y8c70nyLoKiT6tiDlAx2VD9OMsgqyzZ1y6Dai2D6of93MsgSz9OBaSAPAF7fxoFWdtbKjgZFVRd0DR2aMY694KmaXXa/Vjq1P4Q6lQ/hndNWmV6BmXa1ZSp/jdK5ZNMY4Sib92kiXfxmDTzTmmbej9woulWBkpNzdncRFN2Tq/VnPU0Z+2wl5zOPK3mLNtwaTXnWamg5OzjsagAivl/A0jVRv4vFaybnw==&lt;/diagram&gt;&lt;diagram id=&quot;utCHTm57lSQ4KM8nIAan&quot; name=&quot;Page-2&quot;&gt;1VhRb9owEP41PK5KcBLIY0tZV6lIldC09dFKTOLNsSPHlNBfP5s4iRMDYwKawQPKffbZ58/f3UFGYJaVTxzm6YLFiIzGTlyOwONoPJ4AIL8VsK0Ab+pVQMJxXEFuCyzxB9Kgo9E1jlHRmSgYIwLnXTBilKJIdDDIOdt0p60Y6e6awwRZwDKCxEZ/4FikFTr1nRb/hnCS1ju7jh7JYD1ZA0UKY7YxIDAfgRlnTFRPWTlDRHFX81L5fT0w2gTGERWnOATO08LzxAriB29aLl7mZQq/6FUKsa0PjGJ5fm0yLlKWMArJvEUfOFvTGKlVHWm1c14YyyXoSvAXEmKrLxOuBZNQKjKiR6s91UYHj1LHxdY8QkfiH2tJQJ4gcWSe1xAuhYpYhgTfSj+OCBT4vRsH1JJJmnktq/JBE/sPJOsg3yFZ652WMmBhUd8Sq1japFigZQ5359/I5OqSCHmkCfadhtN3xAUqj7Nqs6AdQKCVqlPVrZW7aYVfT0kNzdfYxXkDNy5O70Rx+kOK07PE+UyxwJDgD7k7o+ep9BKy9LqybFqDIcum6pq69K+lS9+ibHCSxtMeSaFNUtOJTJKAcy2WAoulBcRSTs4uFfuEyaOLLiuF4Ow3mjHCuEQooyq9V5iQHiSVmlBpRpIqJPEHRSSWHfxeD2Q4jne1Yd81dOvFJW4i7N3ENLwLfaf9+NbFTPbey5WuZTJEUUUlFj+V+52vrTdj5LHUK++MbecuLlKIgxMLcTBkIZ7eeLcLTyTZPZA/n8NyaFWl73kMBRq8gvfbnOd6nbrhBgN3vbrtfnLloDJ2o3Qo860uF8poi8fOukL1cOv/nX9VNjhT2TvXe87h1piQM0xFYaz8qgBDOL2G4/uq4ZjXbbl4wdkuwN3b1g6594M87i4fKhZatTZ0niFg18r9Rw43/1/mq18MoZH5Qye+/fP2tjqTC05M4HDIzlRHacjzlbMIFcUzzddnvi24gkwBCD+rQUmzfU9WlYP2ZSOY/wE=&lt;/diagram&gt;&lt;/mxfile&gt;" style="background-color: rgb(255, 255, 255);"><defs/><g><path d="M 130 80 L 130 100 L 130 90 L 130 103.63" fill="none" stroke="rgb(0, 0, 0)" stroke-miterlimit="10" pointer-events="stroke"/><path d="M 130 108.88 L 126.5 101.88 L 130 103.63 L 133.5 101.88 Z" fill="rgb(0, 0, 0)" stroke="rgb(0, 0, 0)" stroke-miterlimit="10" pointer-events="all"/><rect x="100" y="20" width="60" height="60" rx="30" ry="30" fill="rgb(255, 255, 255)" stroke="rgb(0, 0, 0)" pointer-events="all"/><g transform="translate(-0.5 -0.5)"><switch><foreignObject pointer-events="none" width="100%" height="100%" requiredFeatures="http://www.w3.org/TR/SVG11/feature#Extensibility" style="overflow: visible; text-align: left;"><div xmlns="http://www.w3.org/1999/xhtml" style="display: flex; align-items: unsafe center; justify-content: unsafe center; width: 58px; height: 1px; padding-top: 50px; margin-left: 101px;"><div data-drawio-colors="color: rgb(0, 0, 0); " style="box-sizing: border-box; font-size: 0px; text-align: center;"><div style="display: inline-block; font-size: 12px; font-family: Helvetica; color: rgb(0, 0, 0); line-height: 1.2; pointer-events: all; white-space: normal; overflow-wrap: normal;">Start</div></div></div></foreignObject><text x="130" y="54" fill="rgb(0, 0, 0)" font-family="Helvetica" font-size="12px" text-anchor="middle">Start</text></switch></g><path d="M 130 160 L 130 180 L 130 170 L 130 183.63" fill="none" stroke="rgb(0, 0, 0)" stroke-miterlimit="10" pointer-events="stroke"/><path d="M 130 188.88 L 126.5 181.88 L 130 183.63 L 133.5 181.88 Z" fill="rgb(0, 0, 0)" stroke="rgb(0, 0, 0)" stroke-miterlimit="10" pointer-events="all"/><rect x="80" y="110" width="100" height="50" rx="7.5" ry="7.5" fill="rgb(255, 255, 255)" stroke="rgb(0, 0, 0)" pointer-events="all"/><g transform="translate(-0.5 -0.5)"><switch><foreignObject pointer-events="none" width="100%" height="100%" requiredFeatures="http://www.w3.org/TR/SVG11/feature#Extensibility" style="overflow: visible; text-align: left;"><div xmlns="http://www.w3.org/1999/xhtml" style="display: flex; align-items: unsafe center; justify-content: unsafe center; width: 98px; height: 1px; padding-top: 135px; margin-left: 81px;"><div data-drawio-colors="color: rgb(0, 0, 0); " style="box-sizing: border-box; font-size: 0px; text-align: center;"><div style="display: inline-block; font-size: 12px; font-family: Helvetica; color: rgb(0, 0, 0); line-height: 1.2; pointer-events: all; white-space: normal; overflow-wrap: normal;">Initialization</div></div></div></foreignObject><text x="130" y="139" fill="rgb(0, 0, 0)" font-family="Helvetica" font-size="12px" text-anchor="middle">Initialization</text></switch></g><rect x="20" y="190" width="220" height="300" rx="33" ry="33" fill="rgb(255, 255, 255)" stroke="rgb(0, 0, 0)" pointer-events="all"/><rect x="30" y="189.95" width="70" height="30" fill="none" stroke="none" pointer-events="all"/><g transform="translate(-0.5 -0.5)"><switch><foreignObject pointer-events="none" width="100%" height="100%" requiredFeatures="http://www.w3.org/TR/SVG11/feature#Extensibility" style="overflow: visible; text-align: left;"><div xmlns="http://www.w3.org/1999/xhtml" style="display: flex; align-items: unsafe center; justify-content: unsafe center; width: 68px; height: 1px; padding-top: 205px; margin-left: 31px;"><div data-drawio-colors="color: rgb(0, 0, 0); " style="box-sizing: border-box; font-size: 0px; text-align: center;"><div style="display: inline-block; font-size: 12px; font-family: Helvetica; color: rgb(0, 0, 0); line-height: 1.2; pointer-events: all; white-space: normal; overflow-wrap: normal;">Main Loop</div></div></div></foreignObject><text x="65" y="209" fill="rgb(0, 0, 0)" font-family="Helvetica" font-size="12px" text-anchor="middle">Main Loop</text></switch></g><path d="M 130 364.95 L 130 385 L 130 370 L 130 383.62" fill="none" stroke="rgb(0, 0, 0)" stroke-miterlimit="10" pointer-events="stroke"/><path d="M 130 388.87 L 126.5 381.87 L 130 383.62 L 133.5 381.87 Z" fill="rgb(0, 0, 0)" stroke="rgb(0, 0, 0)" stroke-miterlimit="10" pointer-events="all"/><rect x="80" y="314.95" width="100" height="50" rx="7.5" ry="7.5" fill="rgb(255, 255, 255)" stroke="rgb(0, 0, 0)" pointer-events="all"/><g transform="translate(-0.5 -0.5)"><switch><foreignObject pointer-events="none" width="100%" height="100%" requiredFeatures="http://www.w3.org/TR/SVG11/feature#Extensibility" style="overflow: visible; text-align: left;"><div xmlns="http://www.w3.org/1999/xhtml" style="display: flex; align-items: unsafe center; justify-content: unsafe center; width: 98px; height: 1px; padding-top: 340px; margin-left: 81px;"><div data-drawio-colors="color: rgb(0, 0, 0); " style="box-sizing: border-box; font-size: 0px; text-align: center;"><div style="display: inline-block; font-size: 12px; font-family: Helvetica; color: rgb(0, 0, 0); line-height: 1.2; pointer-events: all; white-space: normal; overflow-wrap: normal;">Update</div></div></div></foreignObject><text x="130" y="344" fill="rgb(0, 0, 0)" font-family="Helvetica" font-size="12px" text-anchor="middle">Update</text></switch></g><path d="M 130 439.99 L 130 460 L 200 460 L 200 220 L 130 220 L 130 233.58" fill="none" stroke="rgb(0, 0, 0)" stroke-miterlimit="10" pointer-events="stroke"/><path d="M 130 238.83 L 126.5 231.83 L 130 233.58 L 133.5 231.83 Z" fill="rgb(0, 0, 0)" stroke="rgb(0, 0, 0)" stroke-miterlimit="10" pointer-events="all"/><rect x="80" y="389.99" width="100" height="50" rx="7.5" ry="7.5" fill="rgb(255, 255, 255)" stroke="rgb(0, 0, 0)" pointer-events="all"/><g transform="translate(-0.5 -0.5)"><switch><foreignObject pointer-events="none" width="100%" height="100%" requiredFeatures="http://www.w3.org/TR/SVG11/feature#Extensibility" style="overflow: visible; text-align: left;"><div xmlns="http://www.w3.org/1999/xhtml" style="display: flex; align-items: unsafe center; justify-content: unsafe center; width: 98px; height: 1px; padding-top: 415px; margin-left: 81px;"><div data-drawio-colors="color: rgb(0, 0, 0); " style="box-sizing: border-box; font-size: 0px; text-align: center;"><div style="display: inline-block; font-size: 12px; font-family: Helvetica; color: rgb(0, 0, 0); line-height: 1.2; pointer-events: all; white-space: normal; overflow-wrap: normal;">Draw</div></div></div></foreignObject><text x="130" y="419" fill="rgb(0, 0, 0)" font-family="Helvetica" font-size="12px" text-anchor="middle">Draw</text></switch></g><path d="M 130 289.95 L 130 310 L 130 295 L 130 308.58" fill="none" stroke="rgb(0, 0, 0)" stroke-miterlimit="10" pointer-events="stroke"/><path d="M 130 313.83 L 126.5 306.83 L 130 308.58 L 133.5 306.83 Z" fill="rgb(0, 0, 0)" stroke="rgb(0, 0, 0)" stroke-miterlimit="10" pointer-events="all"/><rect x="80" y="239.95" width="100" height="50" rx="7.5" ry="7.5" fill="rgb(255, 255, 255)" stroke="rgb(0, 0, 0)" pointer-events="all"/><g transform="translate(-0.5 -0.5)"><switch><foreignObject pointer-events="none" width="100%" height="100%" requiredFeatures="http://www.w3.org/TR/SVG11/feature#Extensibility" style="overflow: visible; text-align: left;"><div xmlns="http://www.w3.org/1999/xhtml" style="display: flex; align-items: unsafe center; justify-content: unsafe center; width: 98px; height: 1px; padding-top: 265px; margin-left: 81px;"><div data-drawio-colors="color: rgb(0, 0, 0); " style="box-sizing: border-box; font-size: 0px; text-align: center;"><div style="display: inline-block; font-size: 12px; font-family: Helvetica; color: rgb(0, 0, 0); line-height: 1.2; pointer-events: all; white-space: normal; overflow-wrap: normal;">ProcessInput</div></div></div></foreignObject><text x="130" y="269" fill="rgb(0, 0, 0)" font-family="Helvetica" font-size="12px" text-anchor="middle">ProcessInput</text></switch></g></g><switch><g requiredFeatures="http://www.w3.org/TR/SVG11/feature#Extensibility"/><a transform="translate(0,-5)" xlink:href="https://www.drawio.com/doc/faq/svg-export-text-problems" target="_blank"><text text-anchor="middle" font-size="10px" x="50%" y="100%">Text is not SVG - cannot display</text></a></switch></svg>
